storage/app/icons/phosphoricons/bold/note-pencil-bold.svg

<svg xmlns="http://www.w3.org/2000/svg" fill="currentColor" viewBox="0 0 256 256"><path d="m232.49 55.51-32-32a12 12 0 0 0-17 0l-96 96A12 12 0 0 0 84 128v32a12 12 0 0 0 12 12h32a12 12 0 0 0 8.49-3.51l96-96a12 12 0 0 0 0-16.98M192 49l15 15-11 11-15-15Zm-69 99h-15v-15l56-56 15 15Zm105-7.43V208a20 20 0 0 1-20 20H48a20 20 0 0 1-20-20V48a20 20 0 0 1 20-20h67.43a12 12 0 0 1 0 24H52v152h152v-63.43a12 12 0 0 1 24 0"/></svg>

<svg xmlns="http://www.w3.org/2000/svg" viewBox="0 0 256 256" fill="currentColor"><path d="M232.49,55.51l-32-32a12,12,0,0,0-17,0l-96,96A12,12,0,0,0,84,128v32a12,12,0,0,0,12,12h32a12,12,0,0,0,8.49-3.51l96-96A12,12,0,0,0,232.49,55.51ZM192,49l15,15L196,75,181,60Zm-69,99H108V133l56-56,15,15Zm105-7.43V208a20,20,0,0,1-20,20H48a20,20,0,0,1-20-20V48A20,20,0,0,1,48,28h67.43a12,12,0,0,1,0,24H52V204H204V140.57a12,12,0,0,1,24,0Z"/></svg>
